X: 06023
T: FRANKIE'S REEL
C: Bob McQuillen 31 Jan 82
B: Bob's Note Book 6 #23
%R: reel
Z: 2021 John Chambers <jc:trillian.mit.edu>
M: C
L: 1/8
K: F
CB, \
| A,CFC AFCF | DFBF dBFD | CEGE CEGc | AcAF C2CB, |\
| A,CFC AFCF | DFBF dBFD | CEGE CEGB | A2F2 F2 :|
|: Ac \
| dBFB dfed | cAFA CFAc | dcBG ECEG | FAcd c2Ac |\
| dBFB dfed | cAcf afcd | egfd cAGB | A2F2 F2 :|
%%begintext align
%% For Frank
%% Leyton of Nelson, N.H. - We go back many
%% happy years together - Hope you like
%% dancing to this tune, Frankie -
%%endtext

%%sep 1 1 500

%%sep 1 1 500

